image/clock.svg

<svg width="47" height="48" viewBox="0 0 47 48" fill="none" xmlns="http://www.w3.org/2000/svg">
<path d="M23.5 0.75C10.6562 0.75 0.25 11.1562 0.25 24C0.25 36.8438 10.6562 47.25 23.5 47.25C36.3438 47.25 46.75 36.8438 46.75 24C46.75 11.1562 36.3438 0.75 23.5 0.75ZM23.5 42.75C13.0938 42.75 4.75 34.4062 4.75 24C4.75 13.6875 13.0938 5.25 23.5 5.25C33.8125 5.25 42.25 13.6875 42.25 24C42.25 34.4062 33.8125 42.75 23.5 42.75ZM29.2188 33C29.7812 33.375 30.4375 33.2812 30.8125 32.7188L32.5938 30.375C32.9688 29.8125 32.875 29.1562 32.3125 28.7812L26.125 24.1875V10.875C26.125 10.3125 25.5625 9.75 25 9.75H22C21.3438 9.75 20.875 10.3125 20.875 10.875V26.3438C20.875 26.625 20.9688 27 21.25 27.1875L29.2188 33Z" fill="#F7654A"/>
</svg>

<svg xmlns="http://www.w3.org/2000/svg" width="47" height="48" fill="none"><path fill="#F7654A" d="M23.5.8a23.2 23.2 0 100 46.4 23.2 23.2 0 000-46.5zm0 42a18.7 18.7 0 110-37.5 18.7 18.7 0 010 37.5zm5.7-9.8c.6.4 1.2.3 1.6-.3l1.8-2.3c.4-.6.3-1.2-.3-1.6l-6.2-4.6V10.9c0-.6-.5-1.2-1.1-1.2h-3c-.7 0-1.1.6-1.1 1.2v15.4c0 .3 0 .7.4.9l8 5.8z"/></svg>
